X: 138027
Q: "Irish Jig."
M: 6/8
L: 1/8
K: Em
|:\
EBB BAG | FEF AGF | EBB BAG | FAF E3 |\
EBB BAG | FEF AGF | EBB BAG | FAF E3 :|
|:\


